X:1
T:Title
%%score { ( 1 3 ) | ( 2 4 ) }
L:1/8
Q:1/4=100
M:4/4
K:G
V:1 treble nm="Grand Piano"
V:3 treble 
V:2 bass 
V:4 bass 
V:1
 [DB][GB][FB][EB] [EB] [DB]3 | [EB][DB][EB][GB] [Fc]4 | [Dc][Ac][Gc][Fc] [Fc] [Ec]3 | %3
w: Nellie~Place~Chandler * * * * *|||
 [Ec][Dc][Fd][Ec] B4 | [DB][GB][FB][EB] [EB] [DB]3 | [EB][DB][Ec][=Fd] [Ec]4 | %6
w: |||
 [E^c][Gc][Fc][Ec] [Fd][Ad][Gd][E=c] | [DB]2 [CDA]2 [B,DG]4 | B6 z2 | c2 c2 z4 | c6 z2 | B2 B2 z4 | %12
w: ||||||
 dddd dB[FA]B | z4 [^DB]4 | [EA][EG][DF][CE] [B,D][B,G][CF][DG] | [DB]2 [CDA]2 [B,DG]4 |] %16
w: ||||
V:2
 [G,,G,][G,,D,][G,,D,][G,,G,] [G,,G,] [G,,G,]3 | [G,,G,][G,,G,][G,,G,][G,,G,] [D,A,]4 | %2
 [D,F,][D,F,][D,A,][D,A,] [D,A,] [D,A,]3 | [D,A,][D,A,][D,A,][D,F,] [G,D]4 | %4
 [G,,G,][G,,D,][G,,D,][G,,G,] [G,,G,] [G,,G,]3 | [G,,G,][G,,G,][G,,G,][G,,G,] [C,G,]4 | %6
 [A,,A,][A,,A,][A,,A,][A,,A,] [D,A,][F,C][G,B,][C,G,] | [D,G,]2 D,2 G,,4 | %8
 [G,D][E,G,][D,G,][B,,G,] .[G,,G,]2[K:treble] .[G,B,D]2 | %9
 [A,DF][K:bass][G,D][F,D][E,D] [D,A,]2 z2 | [A,DF][G,D][K:bass]F,E, D,FD,[K:treble]c | %11
 G,[K:bass]E,D,B,, G,,2 z2 | [G,B,G][G,B,G][G,B,G][G,B,G] [G,B,G][G,DG][K:bass][D,D][G,=F] | %13
 [C,G,]2 z E, F,2 z2 | [C,C][C,C][C,C][C,G,] [G,,G,][G,,D,][A,,D,][B,,G,] | [D,G,]2 D,2 G,,4 |] %16
V:3
 x8 | x8 | x8 | x8 | x8 | x8 | x8 | x8 | z DDD DDGB | z E z G [Fc]2 (3DFA | %10
 z ED[DG] .[A,F]2 .[DFA]2 | [DG][DG][DG][DG] [DGB]2 (3DGB | x8 | [Ec]2 .[G,EG]2 z2 A,2 | x8 | x8 |] %16
V:4
 x8 | x8 | x8 | x8 | x8 | x8 | x8 | x8 | x6[K:treble] x2 | x[K:bass] x7 | %10
 x2[K:bass] x5[K:treble] x | x[K:bass] x7 | x6[K:bass] x2 | z2 C,2 B,,4 | x8 | x8 |] %16

